flaticon/emoticons/businessman.svg

<svg xmlns="http://www.w3.org/2000/svg" width="32" height="32" viewBox="0 0 24 24">
    <path d="M9.691406 14.539062C9.691406 15.046875 9.277344 15.460938 8.769531 15.460938 8.257812 15.460938 7.847656 15.046875 7.847656 14.539062 7.847656 14.027344 8.257812 13.617188 8.769531 13.617188 9.277344 13.617188 9.691406 14.027344 9.691406 14.539062zM16.617188 14.539062C16.617188 15.046875 16.203125 15.460938 15.691406 15.460938 15.183594 15.460938 14.769531 15.046875 14.769531 14.539062 14.769531 14.027344 15.183594 13.617188 15.691406 13.617188 16.203125 13.617188 16.617188 14.027344 16.617188 14.539062zM15.796875 16.574219C14.699219 16.175781 13.523438 16.210938 12.453125 16.65625 11.382812 16.210938 10.207031 16.175781 9.113281 16.574219 7.953125 16.992188 7.027344 17.839844 6.503906 18.957031 6.398438 19.1875 6.496094 19.464844 6.726562 19.570312 7.351562 19.863281 8.015625 20.007812 8.679688 20.007812 9.210938 20.007812 9.742188 19.917969 10.257812 19.730469 11.15625 19.402344 11.914062 18.816406 12.453125 18.046875 12.992188 18.816406 13.75 19.402344 14.648438 19.730469 15.164062 19.917969 15.695312 20.007812 16.226562 20.007812 16.894531 20.007812 17.558594 19.863281 18.179688 19.570312 18.410156 19.464844 18.511719 19.1875 18.402344 18.957031 17.878906 17.839844 16.953125 16.992188 15.796875 16.574219zM9.941406 18.863281C9.171875 19.140625 8.347656 19.160156 7.578125 18.914062 8.015625 18.234375 8.65625 17.71875 9.425781 17.441406 10.195312 17.160156 11.019531 17.144531 11.789062 17.390625 11.355469 18.066406 10.710938 18.582031 9.941406 18.863281zM14.964844 18.863281C14.195312 18.582031 13.554688 18.066406 13.117188 17.390625 13.886719 17.144531 14.710938 17.164062 15.480469 17.441406 16.25 17.71875 16.890625 18.234375 17.328125 18.914062 16.558594 19.160156 15.734375 19.144531 14.964844 18.863281zM14.964844 18.863281"/>
    <path d="M 23.539062 10.210938 L 21.632812 10.210938 L 20.609375 2.867188 C 20.402344 1.363281 19.105469 0.230469 17.589844 0.230469 L 6.875 0.230469 C 5.355469 0.230469 4.058594 1.363281 3.851562 2.867188 L 2.828125 10.210938 L 0.460938 10.210938 C 0.207031 10.210938 0 10.417969 0 10.671875 C 0 10.925781 0.207031 11.132812 0.460938 11.132812 L 2.464844 11.132812 C 2.429688 11.230469 2.394531 11.332031 2.367188 11.449219 C 1.527344 11.898438 0.921875 12.882812 0.921875 13.847656 C 0.921875 14.839844 1.507812 15.734375 2.402344 16.144531 C 3.554688 20.644531 7.5625 23.769531 12.230469 23.769531 C 16.898438 23.769531 20.90625 20.644531 22.058594 16.144531 C 22.953125 15.734375 23.539062 14.839844 23.539062 13.847656 C 23.539062 12.882812 22.933594 11.898438 22.09375 11.449219 C 22.066406 11.332031 22.03125 11.230469 21.996094 11.132812 L 23.539062 11.132812 C 23.792969 11.132812 24 10.925781 24 10.671875 C 24 10.417969 23.792969 10.210938 23.539062 10.210938 Z M 20.441406 8.363281 L 4.019531 8.363281 L 4.148438 7.441406 L 20.316406 7.441406 Z M 3.890625 9.285156 L 20.570312 9.285156 L 20.699219 10.210938 L 3.761719 10.210938 Z M 4.769531 2.992188 C 4.910156 1.945312 5.816406 1.152344 6.875 1.152344 L 17.589844 1.152344 C 18.644531 1.152344 19.550781 1.945312 19.695312 2.992188 L 20.1875 6.519531 L 4.277344 6.519531 Z M 22.617188 13.847656 C 22.617188 14.53125 22.171875 15.144531 21.515625 15.367188 C 21.367188 15.417969 21.253906 15.542969 21.214844 15.699219 C 20.242188 19.90625 16.546875 22.847656 12.230469 22.847656 C 7.914062 22.847656 4.21875 19.90625 3.246094 15.699219 C 3.210938 15.542969 3.097656 15.417969 2.945312 15.367188 C 2.289062 15.144531 1.847656 14.53125 1.847656 13.847656 C 1.847656 13.175781 2.335938 12.4375 2.941406 12.199219 C 3.089844 12.140625 3.195312 12.007812 3.222656 11.847656 C 3.28125 11.519531 3.394531 11.277344 3.472656 11.132812 L 20.988281 11.132812 C 21.070312 11.277344 21.179688 11.519531 21.238281 11.847656 C 21.265625 12.007812 21.371094 12.140625 21.523438 12.199219 C 22.125 12.4375 22.617188 13.175781 22.617188 13.847656 Z M 22.617188 13.847656"/>
</svg>

<svg xmlns="http://www.w3.org/2000/svg" width="32" height="32" viewBox="0 0 24 24">
    <path d="M9.691 14.54a.921.921 0 1 1-1.845.002.921.921 0 0 1 1.845-.003zm0 0M16.617 14.54a.924.924 0 0 1-1.847 0c0-.513.414-.923.921-.923.512 0 .926.41.926.922zm0 0M15.797 16.574a4.576 4.576 0 0 0-3.344.082 4.566 4.566 0 0 0-3.34-.082 4.579 4.579 0 0 0-2.61 2.383.463.463 0 0 0 .224.613 4.59 4.59 0 0 0 3.53.16 4.59 4.59 0 0 0 2.196-1.683 4.59 4.59 0 0 0 3.774 1.96c.668 0 1.332-.144 1.953-.437a.46.46 0 0 0 .222-.613 4.583 4.583 0 0 0-2.605-2.383zm-5.856 2.29a3.657 3.657 0 0 1-2.363.05 3.665 3.665 0 0 1 1.848-1.473 3.632 3.632 0 0 1 2.363-.05 3.69 3.69 0 0 1-1.848 1.472zm5.024 0a3.707 3.707 0 0 1-1.848-1.473 3.657 3.657 0 0 1 2.363.05c.77.278 1.41.793 1.848 1.473-.77.246-1.594.23-2.363-.05zm0 0"/>
    <path d="M23.54 10.21h-1.907l-1.024-7.343A3.06 3.06 0 0 0 17.59.23H6.876a3.062 3.062 0 0 0-3.023 2.637l-1.024 7.344H.461a.462.462 0 0 0 0 .922h2.004c-.035.097-.07.199-.098.316-.84.45-1.445 1.434-1.445 2.399 0 .992.586 1.886 1.48 2.297a10.103 10.103 0 0 0 9.828 7.625c4.668 0 8.676-3.125 9.829-7.625a2.532 2.532 0 0 0 1.48-2.297c0-.965-.605-1.95-1.445-2.399a2.763 2.763 0 0 0-.098-.316h1.543a.462.462 0 0 0 0-.922zM20.44 8.364H4.02l.128-.922h16.168zm-16.55.922h16.68l.128.926H3.762zm.879-6.293a2.133 2.133 0 0 1 2.105-1.84H17.59c1.055 0 1.96.793 2.105 1.84l.492 3.528H4.277zm17.847 10.856c0 .683-.445 1.297-1.101 1.52a.469.469 0 0 0-.301.331 9.184 9.184 0 0 1-8.985 7.149 9.184 9.184 0 0 1-8.984-7.149.454.454 0 0 0-.3-.332 1.611 1.611 0 0 1-1.098-1.52c0-.671.488-1.41 1.093-1.648a.457.457 0 0 0 .282-.351c.058-.328.172-.57.25-.715h17.515c.082.144.192.387.25.715.028.16.133.293.285.351.602.239 1.094.977 1.094 1.649zm0 0"/>
</svg>
